!!!COM:	Josquin des Pres?
**kern	**kern
*part2	*part1
*staff2	*staff1
*clefGv2	*clefG2
*k[b-]	*k[b-]
*M2/1	*M2/1
=1-	=1-
1.c	0A
2c	.
=2	=2
2B-	1.d
2d	.
2B-	.
4A	2e
4G	.
=3	=3
2F	1.f
4D	.
4E	.
4F	.
4G	.
4A	4e
4B-	4d
=4	=4
2c	1c
1A	.
.	4c
.	4d
4G	4e
4F	4f
=5	=5
1E	1g
2F	2f
2G	[2e
=6	=6
2A	2e]
2B-	1d
2G	.
2A	2c
=7	=7
2r	1d
2.D	.
.	1d
4E	.
4F	.
4G	.
=8	=8
4A	2.c
4F	.
2c	.
.	8B-L
.	8AJ
2B-	2G
2c	[2F
=9	=9
2A	2F]
4G	1f
4F	.
1G	.
.	2e
=10	=10
1F	1f
2r	2g
[2f	[2a
=11	=11
2f]	2a]
2e	1g
1c	.
.	[2cc
=12	=12
1d	2cc]
.	2b-
2c	2cc
[2F	[2a
=13	=13
2F]	2a]
4E	4g
4D	4f
1C	1e
=14	=14
2r	1f
2F	.
2G	2e
2A	2f
=15	=15
1B-	4g
.	4f
.	4e
.	4d
2A	2c
[2B-	[2d
=16	=16
2B-]	2d]
2G	2g
4A	2f
4G	.
4A	4e
4B-	4d
=17	=17
2c	1e
2C	.
2F	2a
2G	2g
=18	=18
2.A	2.cc
4G	4b-
4F	4a
4E	4g
2D	2f
=19	=19
4BB-	2.b-
4C	.
4D	.
4E	4g
4F	2a
4G	.
4A	[2f
4G	.
=20	=20
4A	2f]
4B-	.
1c	2e
.	2.a
2d	.
.	4f
=21	=21
2B-	4b-
.	4a
1c	4g
.	4f
.	2e
2B-	[2g
=22	=22
2A	2g]
4G	1f
4F	.
1G	.
.	2e
=23	=23
0F	0f
==	==
*-	*-
